X:1
T:Rothwell (Tans’ur), LM
T:Rothwell (Tans’ur), LM
T:William Tans’ur, 1754
T:Public Domain Courtesy of the Cyber Hymnal™
C:William Tans’ur, 1754
Z:Public Domain
Z:Courtesy of the Cyber Hymnal™
%%score ( 1 2 ) ( 3 4 )
L:1/8
Q:1/4=127
M:3/4
K:D
V:1 treble 
V:2 treble 
V:3 bass 
V:4 bass 
V:1
 D2 | F4 A2 | d4 [DA]2 | ([EG]2 [DF]2) [CE]2 | D4 [CE]2 | [DF]4 [E^G]2 | [EA]4 [FA]2 | %7
 ([FB]2 [EA]2) [D^G]2 | [CA]4 [EA]2 | [Dd]4 [DA]2 | [DB]4 [DA]2 | (A2 G2) [DF]2 | %12
 ([DF]2 [CE]2) [CE]2 | [DF]4 [CE]2 | (D2 E2) (FG) | A4 [EG]2 | [DF]4 [EA]2 | (d3 c) [EB]2 | %18
 A4 (DE) | [DF]4 [CE]2 | D4 |] %21
V:2
 D2 | F4 A2 | d4 x2 | x6 | D4 x2 | x6 | x6 | x6 | x6 | x6 | x6 | E4 x2 | x6 | x6 | D4 D2 | %15
 (C2 D2) x2 | x6 | D4 x2 | (F2 D2) D2 | x6 | D4 |] %21
V:3
 D,2 | F,4 A,2 | D4 [F,D]2 | ([G,B,]2 A,2) [A,,G,]2 | [D,F,]4 [A,,A,]2 | [D,A,]4 [D,B,]2 | %6
 [C,A,]4 [F,A,]2 | ([D,D]2 [E,C]2) [E,B,]2 | [A,,A,]4 [C,G,]2 | [D,F,]4 [F,A,]2 | G,4 [F,A,]2 | %11
 [C,A,]4 [D,A,]2 | [A,,A,]4 [A,,A,]2 | [D,A,]4 [D,G,]2 | (F,2 G,2) [D,A,]2 | A,4 [C,A,]2 | %16
 [D,A,]4 [C,A,]2 | (B,3 A,) [C,G,]2 | [D,F,]4 (F,^G,) | [A,,A,]4 [A,,G,]2 | [D,F,]4 |] %21
V:4
 D,2 | F,4 A,2 | D4 x2 | x2 A,2 x2 | x6 | x6 | x6 | x6 | x6 | x6 | G,4 x2 | x6 | x6 | x6 | D,4 x2 | %15
 (A,,2 B,,2) x2 | x6 | B,,4 x2 | x4 B,,2 | x6 | x4 |] %21

